assets/icons/pause.svg

<svg width="25" height="25" viewBox="0 0 25 25" fill="none" xmlns="http://www.w3.org/2000/svg">
<g id="pause">
<path id="iconDefault" fill-rule="evenodd" clip-rule="evenodd" d="M4.375 5.00004C4.375 3.73439 5.40101 2.70837 6.66667 2.70837H8.33333C9.59899 2.70837 10.625 3.73439 10.625 5.00004V20C10.625 21.2657 9.59899 22.2917 8.33333 22.2917H6.66667C5.40101 22.2917 4.375 21.2657 4.375 20V5.00004ZM6.66667 3.95837C6.09137 3.95837 5.625 4.42474 5.625 5.00004V20C5.625 20.5753 6.09137 21.0417 6.66667 21.0417H8.33333C8.90863 21.0417 9.375 20.5753 9.375 20V5.00004C9.375 4.42474 8.90863 3.95837 8.33333 3.95837H6.66667ZM14.375 5.00004C14.375 3.73439 15.401 2.70837 16.6667 2.70837H18.3333C19.599 2.70837 20.625 3.73439 20.625 5.00004V20C20.625 21.2657 19.599 22.2917 18.3333 22.2917H16.6667C15.401 22.2917 14.375 21.2657 14.375 20V5.00004ZM16.6667 3.95837C16.0914 3.95837 15.625 4.42474 15.625 5.00004V20C15.625 20.5753 16.0914 21.0417 16.6667 21.0417H18.3333C18.9086 21.0417 19.375 20.5753 19.375 20V5.00004C19.375 4.42474 18.9086 3.95837 18.3333 3.95837H16.6667Z" fill="#18303F"/>
</g>
</svg>

<svg width="25" height="25" viewBox="0 0 25 25" fill="none"><g id="pause"><path id="iconDefault" fill-rule="evenodd" clip-rule="evenodd" d="M4.375 5a2.292 2.292 0 0 1 2.292-2.292h1.666A2.292 2.292 0 0 1 10.625 5v15a2.292 2.292 0 0 1-2.292 2.292H6.667A2.292 2.292 0 0 1 4.375 20V5Zm2.292-1.042c-.576 0-1.042.467-1.042 1.042v15c0 .575.466 1.042 1.042 1.042h1.666c.576 0 1.042-.467 1.042-1.042V5c0-.575-.466-1.042-1.042-1.042H6.667ZM14.375 5a2.292 2.292 0 0 1 2.292-2.292h1.666A2.292 2.292 0 0 1 20.625 5v15a2.292 2.292 0 0 1-2.292 2.292h-1.666A2.292 2.292 0 0 1 14.375 20V5Zm2.292-1.042c-.576 0-1.042.467-1.042 1.042v15c0 .575.466 1.042 1.042 1.042h1.666c.576 0 1.042-.467 1.042-1.042V5c0-.575-.466-1.042-1.042-1.042h-1.666Z" fill="#18303F"/></g></svg>
